build/Karasa-Jaga/scalable/actions/edit-find-option-symbolic.svg

<svg height="16" width="16" xmlns="http://www.w3.org/2000/svg"><g transform="translate(0 -.500382)"><path d="m5 2c-2.7614237 0-5 2.2385763-5 5s2.2385763 5 5 5c.9847834 0 1.8822735-.289667 2.65625-.78125l4.46875 4.625c.09558.105267.226186.164519.375.15625.148816-.0083.303095-.07119.40625-.1875l.9375-1.0625c.191938-.220889.195486-.535924 0-.71875l-4.59375-4.40625c.477599-.7663478.75-1.6555164.75-2.625 0-2.7614237-2.2385763-5-5-5zm0 2c1.6568542 0 3 1.3431458 3 3s-1.3431458 3-3 3-3-1.3431458-3-3 1.3431458-3 3-3zm6 3 2.5 4 2.5-4z" fill="#fff" opacity=".6"/><path d="m5 1c-2.7614237 0-5 2.2385763-5 5s2.2385763 5 5 5c.9847834 0 1.8822735-.289667 2.65625-.78125l4.46875 4.625c.09558.105267.226186.164519.375.15625.148816-.0083.303095-.07119.40625-.1875l.9375-1.0625c.191938-.220889.195486-.535924 0-.71875l-4.59375-4.40625c.477599-.7663478.75-1.6555164.75-2.625 0-2.7614237-2.2385763-5-5-5zm0 2c1.6568542 0 3 1.3431458 3 3s-1.3431458 3-3 3-3-1.3431458-3-3 1.3431458-3 3-3zm6 3 2.5 4 2.5-4z" fill="#bebebe"/></g></svg>

<?xml version="1.0" encoding="UTF-8" standalone="no"?>
<!-- Created with Inkscape (http://www.inkscape.org/) -->

<svg
   xmlns:dc="http://purl.org/dc/elements/1.1/"
   xmlns:cc="http://creativecommons.org/ns#"
   xmlns:rdf="http://www.w3.org/1999/02/22-rdf-syntax-ns#"
   xmlns:svg="http://www.w3.org/2000/svg"
   xmlns="http://www.w3.org/2000/svg"
   xmlns:sodipodi="http://sodipodi.sourceforge.net/DTD/sodipodi-0.dtd"
   xmlns:inkscape="http://www.inkscape.org/namespaces/inkscape"
   id="svg7384"
   height="16"
   width="16"
   version="1.1"
   inkscape:version="0.48.3.1 r9886"
   sodipodi:docname="edit-cut-symbolic.svg">
  <defs
     id="defs10173">
    <linearGradient
       id="linearGradient4980">
      <stop
         style="stop-color:#595959;stop-opacity:1;"
         offset="0"
         id="stop4982" />
      <stop
         style="stop-color:#707070;stop-opacity:1;"
         offset="1"
         id="stop4984" />
    </linearGradient>
    <linearGradient
       id="linearGradient3873">
      <stop
         id="stop3875"
         offset="0"
         style="stop-color:#dadada;stop-opacity:1;" />
      <stop
         id="stop3877"
         offset="1"
         style="stop-color:#ffffff;stop-opacity:1;" />
    </linearGradient>
    <linearGradient
       id="linearGradient3587-6-5-3-5-7">
      <stop
         offset="0"
         style="stop-color:#000000;stop-opacity:1"
         id="stop3589-9-2-2-6-2" />
      <stop
         offset="1"
         style="stop-color:#363636;stop-opacity:1"
         id="stop3591-7-4-73-5-1" />
    </linearGradient>
  </defs>
  <sodipodi:namedview
     pagecolor="#ffffff"
     bordercolor="#666666"
     borderopacity="1"
     objecttolerance="10"
     gridtolerance="10"
     guidetolerance="10"
     inkscape:pageopacity="0"
     inkscape:pageshadow="2"
     inkscape:window-width="1366"
     inkscape:window-height="696"
     id="namedview10171"
     showgrid="false"
     inkscape:zoom="7.375"
     inkscape:cx="-26.782767"
     inkscape:cy="-0.20720322"
     inkscape:window-x="0"
     inkscape:window-y="0"
     inkscape:window-maximized="1"
     inkscape:current-layer="svg7384" />
  <metadata
     id="metadata90">
    <rdf:RDF>
      <cc:Work
         rdf:about="">
        <dc:format>image/svg+xml</dc:format>
        <dc:type
           rdf:resource="http://purl.org/dc/dcmitype/StillImage" />
        <dc:title>Gnome Symbolic Icon Theme</dc:title>
      </cc:Work>
    </rdf:RDF>
  </metadata>
  <title
     id="title9167">Gnome Symbolic Icon Theme</title>
  <g
     id="g3036"
     transform="translate(0,-0.50038226)">
    <path
       sodipodi:nodetypes="ssscccccccssssssscccc"
       inkscape:connector-curvature="0"
       id="path3220-5"
       d="M 5,2 C 2.2385763,2 0,4.2385763 0,7 c 0,2.7614237 2.2385763,5 5,5 0.9847834,0 1.8822735,-0.289667 2.65625,-0.78125 l 4.46875,4.625 c 0.09558,0.105267 0.226186,0.164519 0.375,0.15625 0.148816,-0.0083 0.303095,-0.07119 0.40625,-0.1875 l 0.9375,-1.0625 c 0.191938,-0.220889 0.195486,-0.535924 0,-0.71875 L 9.25,9.625 C 9.727599,8.8586522 10,7.9694836 10,7 10,4.2385763 7.7614237,2 5,2 z M 5,4 C 6.6568542,4 8,5.3431458 8,7 8,8.6568542 6.6568542,10 5,10 3.3431458,10 2,8.6568542 2,7 2,5.3431458 3.3431458,4 5,4 z m 6,3 2.5,4 2.5,-4 z"
       style="opacity:0.6;color:#000000;fill:#ffffff;fill-opacity:1;fill-rule:nonzero;stroke:none;stroke-width:1;marker:none;visibility:visible;display:inline;overflow:visible;enable-background:accumulate" />
    <path
       sodipodi:nodetypes="ssscccccccssssssscccc"
       inkscape:connector-curvature="0"
       id="path3220"
       d="M 5,1 C 2.2385763,1 0,3.2385763 0,6 c 0,2.7614237 2.2385763,5 5,5 0.9847834,0 1.8822735,-0.289667 2.65625,-0.78125 l 4.46875,4.625 c 0.09558,0.105267 0.226186,0.164519 0.375,0.15625 0.148816,-0.0083 0.303095,-0.07119 0.40625,-0.1875 l 0.9375,-1.0625 c 0.191938,-0.220889 0.195486,-0.535924 0,-0.71875 L 9.25,8.625 C 9.727599,7.8586522 10,6.9694836 10,6 10,3.2385763 7.7614237,1 5,1 z M 5,3 C 6.6568542,3 8,4.3431458 8,6 8,7.6568542 6.6568542,9 5,9 3.3431458,9 2,7.6568542 2,6 2,4.3431458 3.3431458,3 5,3 z m 6,3 2.5,4 2.5,-4 z"
       style="color:#000000;fill:#bebebe;fill-opacity:1;fill-rule:nonzero;stroke:none;stroke-width:1;marker:none;visibility:visible;display:inline;overflow:visible;enable-background:accumulate" />
  </g>
</svg>
